svg/misc/user-suit-male.svg

<svg width="512" height="512" viewBox="0 0 512 512" version="1.1" xmlns="http://www.w3.org/2000/svg"><path fill="currentColor" d="M512,512l-512,0c0,-108.606 2.909,-138.303 8.727,-153.819c2.909,-4.121 7.091,-8.181 12.546,-12.181c5.454,-4 12.606,-7.94 21.454,-11.819c8.849,-3.878 16.909,-7.212 24.182,-10c7.273,-2.787 17.212,-6.484 29.818,-11.09c12.606,-4.607 22.546,-8.243 29.818,-10.91c6.303,-2.424 12.425,-5.212 18.364,-8.363c5.939,-3.152 9.758,-5.091 11.455,-5.818c1.697,2.181 3.272,13.515 4.727,34c1.454,20.484 3.515,43.818 6.182,70c2.666,26.181 5.939,45.818 9.818,58.909c1.697,5.818 5.273,10.363 10.727,13.636c5.455,3.273 10.606,5.515 15.455,6.727c4.848,1.212 7.394,2.182 7.636,2.909c0.243,-0.969 2.727,-12.969 7.455,-36c4.727,-23.03 9.151,-43.393 13.272,-61.09c1.775,-7.621 3.37,-15.905 4.785,-23.255c1.421,-7.379 2.66,-13.817 3.718,-17.697l-32.139,-32.139l48,-32l48,32l-31.955,31.955c6.302,16.342 16.024,63.881 29.165,128.142c0.679,3.318 1.366,6.68 2.063,10.084c0.242,-0.727 2.788,-1.697 7.636,-2.909c4.849,-1.212 10,-3.454 15.455,-6.727c5.454,-3.273 9.03,-7.818 10.727,-13.636c3.879,-13.091 6.97,-32.728 9.273,-58.909c2.303,-26.182 4,-49.516 5.091,-70c1.09,-20.485 2.484,-31.819 4.181,-34c1.697,0.727 5.516,2.666 11.455,5.818c5.939,3.151 12.061,5.939 18.364,8.363c7.272,2.667 17.212,6.303 29.818,10.91c12.606,4.606 22.545,8.303 29.818,11.09c7.273,2.788 15.333,6.122 24.182,10c8.848,3.879 16,7.819 21.454,11.819c5.455,4 9.637,8.06 12.546,12.181c3.151,9.697 5.394,36.364 6.727,80c0.47,15.374 0.857,25.707 1.161,33.831l0,0.002c0.558,14.906 0.838,22.373 0.839,39.986Zm-256,-256c-70.692,0 -128,-57.308 -128,-128c0,-70.692 57.308,-128 128,-128c70.692,0 128,57.308 128,128c0,70.692 -57.308,128 -128,128Zm108.8,-127.2c-10.4,2.133 -25.267,1.133 -44.6,-3c-19.333,-4.134 -35.667,-9 -49,-14.6c-9.067,-4 -17.733,-8.6 -26,-13.8c-8.267,-5.2 -17.733,-11.734 -28.4,-19.6c-10.667,-7.867 -18.933,-13.667 -24.8,-17.4c4.267,31.733 -10.667,54.4 -44.8,68c0.267,30.133 11,55.733 32.2,76.8c21.2,21.066 46.733,31.6 76.6,31.6c29.867,0 55.4,-10.534 76.6,-31.6c21.2,-21.067 31.933,-46.533 32.2,-76.4Z"></path></svg>

<svg width="512" height="512" viewBox="0 0 512 512" fill="none" xmlns="http://www.w3.org/2000/svg">
<path fill-rule="evenodd" clip-rule="evenodd" d="M256 256C326.692 256 384 198.692 384 128C384 57.3076 326.692 0 256 0C185.308 0 128 57.3076 128 128C128 198.692 185.308 256 256 256ZM364.8 128.8C354.4 130.933 339.533 129.933 320.2 125.8C300.867 121.666 284.533 116.8 271.2 111.2C262.133 107.2 253.467 102.6 245.2 97.3998C236.933 92.1998 227.467 85.6665 216.8 77.7998C206.133 69.9332 197.867 64.1332 192 60.3998C196.267 92.1332 181.333 114.8 147.2 128.4C147.467 158.533 158.2 184.133 179.4 205.2C200.6 226.266 226.133 236.8 256 236.8C285.867 236.8 311.4 226.266 332.6 205.2C353.8 184.133 364.533 158.667 364.8 128.8Z" fill="black"/>
<path d="M240.139 336.139L208 304L256 272L304 304L272.045 335.955C278.347 352.297 288.069 399.836 301.21 464.097C301.889 467.415 302.576 470.777 303.273 474.181C303.515 473.454 306.061 472.484 310.909 471.272C315.758 470.06 320.909 467.818 326.364 464.545C331.818 461.272 335.394 456.727 337.091 450.909C340.97 437.818 344.061 418.181 346.364 392C348.667 365.818 350.364 342.484 351.455 322C352.545 301.515 353.939 290.181 355.636 288C357.333 288.727 361.152 290.666 367.091 293.818C373.03 296.969 379.152 299.757 385.455 302.181C392.727 304.848 402.667 308.484 415.273 313.091C427.879 317.697 437.818 321.394 445.091 324.181C452.364 326.969 460.424 330.303 469.273 334.181C478.121 338.06 485.273 342 490.727 346C496.182 350 500.364 354.06 503.273 358.181C506.424 367.878 508.667 394.545 510 438.181C510.47 453.555 510.857 463.888 511.161 472.012L511.161 472.013L511.161 472.014C511.72 486.948 512 494.415 512 512H0C0 403.394 2.90909 373.697 8.72728 358.181C11.6364 354.06 15.8182 350 21.2727 346C26.7273 342 33.8788 338.06 42.7273 334.181C51.5758 330.303 59.6364 326.969 66.9091 324.181C74.1818 321.394 84.1212 317.697 96.7273 313.091C109.333 308.484 119.273 304.848 126.545 302.181C132.848 299.757 138.97 296.969 144.909 293.818C150.848 290.666 154.667 288.727 156.364 288C158.061 290.181 159.636 301.515 161.091 322C162.545 342.484 164.606 365.818 167.273 392C169.939 418.181 173.212 437.818 177.091 450.909C178.788 456.727 182.364 461.272 187.818 464.545C193.273 467.818 198.424 470.06 203.273 471.272C208.121 472.484 210.667 473.454 210.909 474.181C211.152 473.212 213.636 461.212 218.364 438.181C223.091 415.151 227.515 394.788 231.636 377.091C233.411 369.47 235.006 361.186 236.421 353.836C237.842 346.457 239.081 340.019 240.139 336.139Z" fill="black"/>
</svg>
